X:1
T: The Duke of Gordon's Strathspey
C:
R:Strathspey
Q: 128
K:E
M:4/4
L:1/16
|:B,2|E3G BG3 EB3 eG3|Bb3 ge3 f3e fg3|E3G BG3 Be3 ge3|f3e fg3 eee2 e4|
E3G BG3 E2GB eG3|Bb3 ge3 f3e fg3|E3G BG3 EG3 EB,3|C3c BG3 EEE2 E2ga|
be3 ge3 bagf ge3|ca3 f3g e3f dB3|be3 ge3 bagf ge3|ca3 g3f ge3 e2ga|
be3 ge3 bagf ge3|ca3 f3g e3f dB3|ca3 Bg3 Af3 Ge3|F3E FG3 EEE2 E2:|
